symbols/web/create_new_folder/materialsymbolssharp/create_new_folder_gradN25_24px.svg

<svg xmlns="http://www.w3.org/2000/svg" height="24" width="24"><path d="M14.025 15.9H15.9v-1.975h1.975V12.05H15.9v-1.975h-1.875v1.975H12.05v1.875h1.975ZM2.25 19.8V4.325h7.875L12 6.2h9.75v13.6Zm1.875-1.875h15.75v-9.85h-8.65L9.35 6.2H4.125Zm0 0V6.2v1.875Z"/></svg>

<svg xmlns="http://www.w3.org/2000/svg" height="24" width="24"><path d="M14.025 15.9H15.9V13.925H17.875V12.05H15.9V10.075H14.025V12.05H12.05V13.925H14.025ZM2.25 19.8V4.325H10.125L12 6.2H21.75V19.8ZM4.125 17.925H19.875V8.075H11.225L9.35 6.2H4.125ZM4.125 17.925V6.2V8.075Z"/></svg>
